polaris-icons/icons/newicons/ChannelsMajor.svg

<svg width="20" height="20" viewBox="0 0 20 20" fill="none" xmlns="http://www.w3.org/2000/svg">
<path fill-rule="evenodd" clip-rule="evenodd" d="M6.25 3C5.69772 3 5.25 3.44772 5.25 4V6C5.25 6.55228 5.69772 7 6.25 7H6.5V8.5H6C4.34315 8.5 3 9.84315 3 11.5V14C3 15.6569 4.34315 17 6 17H8.5C10.1569 17 11.5 15.6569 11.5 14V13.5H13V13.75C13 14.3023 13.4477 14.75 14 14.75H16C16.5523 14.75 17 14.3023 17 13.75V11.75C17 11.1977 16.5523 10.75 16 10.75H14C13.4477 10.75 13 11.1977 13 11.75V12H11.5V11.5C11.5 10.9437 11.3486 10.4227 11.0847 9.97606L14.0607 7H16C16.5523 7 17 6.55228 17 6V4C17 3.44772 16.5523 3 16 3H14C13.4477 3 13 3.44772 13 4V5.93939L10.024 8.91538C9.57737 8.65145 9.05637 8.5 8.5 8.5H8V7H8.25C8.80228 7 9.25 6.55228 9.25 6V4C9.25 3.44772 8.80228 3 8.25 3H6.25ZM6.75 4.5V5.5H7.75V4.5H6.75ZM6 10C5.17157 10 4.5 10.6716 4.5 11.5V14C4.5 14.8284 5.17157 15.5 6 15.5H8.5C9.32843 15.5 10 14.8284 10 14V11.5C10 10.6716 9.32843 10 8.5 10H6ZM14.5 5.5V4.5H15.5V5.5H14.5ZM14.5 12.25V13.25H15.5V12.25H14.5Z" fill="black"/>
</svg>

<svg viewBox="0 0 20 20" fill="none" xmlns="http://www.w3.org/2000/svg"><path fill-rule="evenodd" clip-rule="evenodd" d="M6.25 3a1 1 0 0 0-1 1v2a1 1 0 0 0 1 1h.25v1.5h-.5a3 3 0 0 0-3 3v2.5a3 3 0 0 0 3 3h2.5a3 3 0 0 0 3-3v-.5h1.5v.25a1 1 0 0 0 1 1h2a1 1 0 0 0 1-1v-2a1 1 0 0 0-1-1h-2a1 1 0 0 0-1 1v.25h-1.5v-.5c0-.556-.151-1.077-.415-1.524l2.976-2.976h1.939a1 1 0 0 0 1-1v-2a1 1 0 0 0-1-1h-2a1 1 0 0 0-1 1v1.94l-2.976 2.975a2.986 2.986 0 0 0-1.524-.415h-.5v-1.5h.25a1 1 0 0 0 1-1v-2a1 1 0 0 0-1-1h-2Zm.5 1.5v1h1v-1h-1Zm-.75 5.5a1.5 1.5 0 0 0-1.5 1.5v2.5a1.5 1.5 0 0 0 1.5 1.5h2.5a1.5 1.5 0 0 0 1.5-1.5v-2.5a1.5 1.5 0 0 0-1.5-1.5h-2.5Zm8.5-4.5v-1h1v1h-1Zm0 6.75v1h1v-1h-1Z" fill="#000"/></svg>
